!!!OTL: Rain, Rain, Go Away
!!!COM: unknown
!!!ODT: unknown
!!!YOR: Wee Sing: Children's Songs and Fingerplays
!!!YOY: 1977
!!!AST: Children's song
!!!YEC: Brian Luke, 2001
**kern	**harm
*k[]	*k[]
*M2/4	*M2/4
*C:	*C:
*>A	*>A
=1	=1
4g	I
4e	.
=2	=2
8g	.
8g	.
4e	.
=3	=3
8g	.
8g	.
8e	.
8a	.
=4	=4
8g	.
8g	.
4e	.
=5	=5
8f	V7
8f	.
8d	.
8d	.
=6	=6
8f	.
8f	.
4d	.
=7	=7
8g	.
8f	.
8e	.
8d	.
=8	=8
8e	I;
8c	.
4c	.
*-	*-
